!!!!SEGMENT: pl-wnifc--1816-n--002_lipski-stanislaw--12-piesni-op-9-pamieci-chopina.krn
!!!cenid: 18xx:3877
!!!COM: Lipski, Stanisław
!!!COM-rismID: pe50044081
!!!CDT: 1880-1937
!!!CNT: Polish
!!!GTL: 12 pieśni op. 9
!!!OTL: Pamięci Chopina
!!!OMV: 002
!!!PDT:
!!!AGN:
!!!SMS-siglum: PL-Wnifc
!!!SMS-shelfmark: 1816/n
!!!SMS-shelfwork: 001-002 G
!!!SMS-variant:
!!!SMS-altvar:
!!!NIFC-rismSourceID: 1001156167
!!!NIFC-rismChildID: 1001156170
!!!NIFC-islandoraID: nifc:211804
!!!URL-pdf-islandora: https://repozytorium.nifc.pl/islandora/object/nifc%3A211804/datastream/PDF/view
!!!URL-scan: https://polish.musicsources.pl/pl/lokalizacje/galeria/druki-muzyczne/16804 @EN{Scan on Polish Music Sources Website} @PL{Skany w portalu Dziedzictwo Muzyki Polskiej w otwartym dostępie}
!!!ONB-nifc:
!!!AIN: 2 piano 1 soprn
!!!key: f#
**kern	**dynam	**kern	**dynam	**kern	**text	**text	**dynam
*part3	*part3	*part2	*part2	*part1	*part1	*part1	*part1
*staff3	*	*staff2	*	*staff1	*staff1	*staff1	*
*I"PIANO.	*	*I"PIANO.	*	*I"CANTO.	*	*	*
*I'pf	*	*I'pf	*	*I'S	*	*	*
*ICklav	*	*ICklav	*	*ICvox	*	*	*
*Ipiano	*	*Ipiano	*	*Isoprn	*	*	*
*clefF4	*	*clefG2	*	*clefG2	*	*	*
*k[f#c#g#]	*	*k[f#c#g#]	*	*k[f#c#g#]	*	*	*
*f#:	*	*f#:	*	*f#:	*	*	*
*M4/8	*	*M4/8	*	*M4/8	*	*	*
=1	=1	=1	=1	=1	=1	=1	=1
*	*	*^	*	*	*	*	*
*	*	*	*^	*	*	*	*	*
!	!	!LO:TX:a:t=misterioso	!	!	!	!LO:TX:a:B:t=Non troppo lento e molto espress.	!	!	!
[2BBB/ [2FF# [2D	.	8f#/L	2c#/	8F#\L	p	2r	.	.	.
.	.	8g#/	.	8G#\J	.	.	.	.	.
.	.	8f#/	.	[<4F#\	.	.	.	.	.
.	.	16B/L	.	.	.	.	.	.	.
.	.	16c#/JJ	.	.	.	.	.	.	.
*	*	*v	*v	*v	*	*	*	*	*
=2	=2	=2	=2	=2	=2	=2	=2
8BBB/L] 8FF#] 8D]	.	2F#/_ [2B [2d	.	2r	.	.	.
(8EE/ 8E	.	.	.	.	.	.	.
8DD/ 8D	.	.	.	.	.	.	.
8CC#/J) 8C#	.	.	.	.	.	.	.
=3	=3	=3	=3	=3	=3	=3	=3
*	*	*^	*	*	*	*	*
4BBB/ 4BB	.	8d/L]	8F#\L] 8B]	.	2r	.	.	.
.	.	8gn^/	8Gn\	.	.	.	.	.
8FFFn/L 8FFn	.	8g/	8G\ 8B 8d	.	.	.	.	.
(8EEE/J 8EE	.	[8g#X^/J	8G#X\J 8B 8d	.	.	.	.	.
*	*	*v	*v	*	*	*	*	*
=4	=4	=4	=4	=4	=4	=4	=4
*8ba	*	*	*	*	*	*	*
*	*	*^	*	*	*	*	*
!	!	!	!	!LO:HP:a	!	!	!	!
8DDD#X/L) 8DD#X	.	8d#X/L 8g#]	8G#X\L 8B#X	<	2r	.	.	.
8DDDn/J 8DDn	.	8fn/ [8a	8A\J 8Bn	.	.	.	.	.
4CCC#/ 4CC#	.	8a/]	4Bn\ 4c# 4e#X	.	.	.	.	.
.	.	8g#/J 8cc#	.	.	.	.	.	.
*	*	*v	*v	*	*	*	*	*
=5	=5	=5	=5	=5	=5	=5	=5
2DDD;/ 2AAA 2DD	.	2f#;\ 2cc# 2ff#	[ >	2r	.	.	.
*X8ba	*	*	*	*	*	*	*
=6	=6	=6	=6	=6	=6	=6	=6
2CC#\ 2GG# 2C#	.	2E</ 2G#< 2c#<	]]	2r	.	.	.
=7	=7	=7	=7	=7	=7	=7	=7
2DDD/ 2AAA 2DD	.	2F#/ 2c# 2f#	.	2r	.	.	.
!!LO:LB:g=original	!	!	!	!	!	!
=8	=8	=8	=8	=8	=8	=8	=8
2CC#;<\ 2GG# 2C#	.	2E<;/ 2G#< 2c#<	.	2r	.	.	.
=9	=9	=9	=9	=9	=9	=9	=9
!	!	!LO:TX:b:i:t=sempre	!	!	!	!	!
(<2DDD/ 2AAA 2DD	.	(>2F#/ 2c# 2f#	p	8f#/	W ob-	Ach,	.
.	.	.	.	8g#/	-cej	in	.
.	.	.	.	8a/	gdzieś	frem-	.
.	.	.	.	8f#/	kra-	-den	.
=10	=10	=10	=10	=10	=10	=10	=10
2CC#\) 2GG# 2C#	.	2E</) 2G#< 2c#<	.	4cc#\	-i-	Lan-	.
.	.	.	.	4cc#\	-nie	-den	.
=11	=11	=11	=11	=11	=11	=11	=11
(<2DDD/ 2AAA 2DD	.	(>2F#/ 2c# 2f#	.	8f#/	Ka-	steht	.
.	.	.	.	8f#/	-mień	Dein	.
.	.	.	.	8e/	Twój	To-	.
.	.	.	.	8f#/	gro-	-ten-	.
=12	=12	=12	=12	=12	=12	=12	=12
2CC#\) 2GG# 2C#	.	2E</) 2G#< 2c#<	.	(8g#/L	-bo-	-stein,	.
.	.	.	.	8e/J)	.	.	.
.	.	.	.	4c#/	-wy,	.	.
=13	=13	=13	=13	=13	=13	=13	=13
*	*	*^	*	*	*	*	*
2DDD/ 2AAA 2DD	.	[<2F#/ [>2f#	4e\	.	8f#/	Cu-	Und	.
.	.	.	.	.	8g#/	-dze	ein	.
.	.	.	4d\	.	8a/	nie-	frem-	.
.	.	.	.	.	8f#/	-bo	-der	.
!!LO:LB:g=original	!	!	!	!	!	!	!
=14	=14	=14	=14	=14	=14	=14	=14	=14
*	*	*	*^	*	*	*	*	*
[2BBB:/ [2FF#: [2D:	.	4.f#/]	[4c#\	2F#\]	.	4cc#\	pły-	Him-	.
.	.	.	(4c#\]	.	.	8cc#\	-nie	-mel,	.
.	.	8e/	.	.	.	16r	.	.	.
.	.	.	.	.	.	16cc#\	Nad	.	.
*	*	*	*v	*v	*	*	*	*	*
=15	=15	=15	=15	=15	=15	=15	=15	=15
*	*	*	*	*	*^	*	*	*
4BBB/] 4FF#] 4D]	.	8d/L	[4F#\) [4B	.	4f#~/	8f#\L	snem	blaut ob	.
.	.	8d/	.	.	.	8f#\J	.	.	.
4BBB:/ 4FF#: 4D:	.	8e/	8F#\L] 8B]	.	8e/	4ryy	Two-	Dei-	.
.	.	8e#X/J	8G#\J 8d	.	8d/	.	-jej	-nem	.
*	*	*	*	*	*v	*v	*	*	*
=16	=16	=16	=16	=16	=16	=16	=16	=16
8AAA/L 8AA	.	(4.c#/ 4.f#	8F#\L	.	(4.a/	gło-	Sein.	.
8GGG#/ 8GG#	.	.	8G#\	.	.	.	.	.
8FFF#/ 8FF#	.	.	8A\	.	.	.	.	.
8EEE#X/J 8EE#X	.	8d/) 8g#	8B\J	.	8b\)	-wy,	.	.
=17	=17	=17	=17	=17	=17	=17	=17	=17
(4.EEEn/ 4.EEn	.	8a/L	8A\L 8c# 8f#	.	8cc#\	Cu-	Frem-	.
.	.	8f#/J 8ff#	8f#\J	.	8cc#\	-dze	-der	.
.	.	8.ee/L	8g#\L 8a	.	8.ee\	nie-	Wol-	.
(((8FFF#/) 8FF#	.	.	(8f#\J	.	.	.	.	.
.	.	16dd/Jk	.	.	16dd\	-bo	-ken-	.
=18	=18	=18	=18	=18	=18	=18	=18	=18
*	*	*	*^	*	*	*	*	*
8GGGn/)) 8GGn	.	8.a/L 8.cc#	8e#X\L)	4ryy	.	4cc#\	chmur-	-him-	.
4AAA/ 4AA	.	.	8f#\J	.	.	.	.	.	.
.	.	[16a/Jk	.	.	.	.	.	.	.
.	.	8.a/L]	8.A\L	8f#/L	.	4a/	-ne	-mel	.
[8CCn/) [8Cn	.	.	.	8e#/J	.	.	.	.	.
.	.	16g#/Jk	16G#\Jk	.	.	.	.	.	.
!!LO:PB:g=original	!	!	!	!	!	!	!	!
=19	=19	=19	=19	=19	=19	=19	=19	=19	=19
8.CC/L] 8.C]	.	8f#/L	8.e\L	4A\	.	8f#/	Ran-	früch	.
.	.	8g#/	.	.	.	8g#/	-kiem	Dein	.
16BBB/K 16BB	.	.	16d#X\K	.	.	.	.	.	.
8FF#/ 8F#	.	8a/	8A\ 8dn	4ryy	>	8a/	grób	Grab	.
8FFn/J 8BB 8Fn	.	8b:/J	8G#:\J 8d:	.	]]	8b\	Twój	be-	.
*	*	*	*v	*v	*	*	*	*	*
=20	=20	=20	=20	=20	=20	=20	=20	=20
*^	*	*	*	*	*	*	*	*
4AAA:/ 4EE: 4AA: [4E:	4ryy	.	4A:/ 4cc#:	8e\L	.	[4cc#\	ro-	-taut	.
.	.	.	.	8e#X\J	.	.	.	.	.
16E/LL]	4DD\ 4AA	.	8.cc#/L	4c#\ 4f#	.	4cc#\]	-si,	.	.
[<16D/J	.	.	.	.	.	.	.	.	.
8D/J]	.	.	.	.	.	.	.	.	.
.	.	.	16a/Jk	.	.	.	.	.	.
*v	*v	*	*	*	*	*	*	*	*
=21	=21	=21	=21	=21	=21	=21	=21	=21
[4EE/ [4BB [4E	.	8b/L	8d\L 8f#	<	8b\	Cu-	Frem-	.
.	.	8ff#/	[8f#\	[	8cc#\	-dzy	-de	.
16EE/KL] 16BB] 16E]	.	8dd/	8f#\]	>	8b\	wiatr	Win-	.
8EE/ 8E	.	.	.	.	.	.	.	.
.	.	8b/J	8d\J 8g#	]	(16f#/LL	Ci	-de	.
16EE#X/Jk 16E#X	.	.	.	.	16g#/JJ)	.	.	.
=22	=22	=22	=22	=22	=22	=22	=22	=22
4FF#/ 4BB#X 4F#	.	[4a/	8e-X\L	.	4a/	e-	brin-	.
.	.	.	8d\	.	.	.	.	.
(>8FFn/L 8C#X 8Fn	.	8a/L]	8c#X\	.	4a/	-cho	-gen	.
8AA/J) 8D 8F#X	.	[8a/J	8cn\J	.	.	.	.	.
=23	=23	=23	=23	=23	=23	=23	=23	=23
((2BB/ 2C# 2E#X	.	(4a/]	4.B\ 4.c# 4.e#X	.	8b\	Cu-	frem-	.
.	.	.	.	.	8cc#\	-dzej	-den	.
.	.	8g#/)	.	.	8b\	pie-	San-	.
.	.	8r	8r	.	(16f#/LL	-śni	-ges	.
.	.	.	.	.	16g#/JJ)	.	.	.
*	*	*v	*v	*	*	*	*	*
=24	=24	=24	=24	=24	=24	=24	=24
*^	*	*	*	*	*	*	*
(8AA\L)) 8F#	4C#/	.	2r	.	(4.a/	no-	Laut.	.
8BB\ 8G#	.	.	.	.	.	.	.	.
8AA\ 8F#	4ryy	.	.	>]	.	.	.	.
8FF#\J) [<8C#	.	.	.	.	8f#/)	-si.	.	.
=25	=25	=25	=25	=25	=25	=25	=25	=25
8F#/L	8AA\L 8C#]	.	[4ff#\ [4ccc# [4fff#	pp	2r	.	.	.
8G#/	8BB\J	.	.	.	.	.	.	.
8F#/	4AA\	.	16ff#\KL] 16ccc#] 16fff#]	.	.	.	.	.
.	.	.	8f#\ 8cc# 8ff#	.	.	.	.	.
8C#/J	.	.	.	.	.	.	.	.
.	.	.	16f#\Jk	.	.	.	.	.
*v	*v	*	*	*	*	*	*	*
=26	=26	=26	=26	=26	=26	=26	=26
*	*	*^	*	*	*	*	*
((2BBB/ 2BB	.	4.e/	2A\ (>2d#X	.	8e#X/	A-	Und	.
.	.	.	.	.	8e#/	-ni	nicht	.
.	.	.	.	.	8.dd\	Twej	uns-	.
.	.	8f#/)	.	.	.	.	.	.
.	.	.	.	.	16a/	mo-	-re	.
*	*	*v	*v	*	*	*	*	*
=27	=27	=27	=27	=27	=27	=27	=27
*^	*	*	*	*	*	*	*
12AAA/L)) 12AA	2EE\	.	4.c#/ 4.a 4.cc#	.	4.cc#\	-gi-	Bir-	.
!LO:TUP:a:problem:klamra łukowa	!	!	!	!	!	!	!	!
12BBB/ 12BB	.	.	.	.	.	.	.	.
12BBB#X/J 12BB#X	.	.	.	.	.	.	.	.
4CC#/ 4C#	.	.	.	.	.	.	.	.
.	.	.	8A/ 8e 8a	.	8a/	-ły	-ke	.
=28	=28	=28	=28	=28	=28	=28	=28	=28
4DD/ 4AA 4D	4ryy	.	8A/L 8fn	.	8fn/	Na-	schützt	.
.	.	.	8d/ 8a	.	8f/	-sza	die	.
8.Fn/L	8DD\L 8AA	.	8f/ 8dd	.	8.dd\	brzo-	Ruh-	.
.	8AA\J	.	8a/J (>8ffn	.	.	.	.	.
16D/Jk	.	.	.	.	16a/	-za	-statt	.
*v	*v	*	*	*	*	*	*	*
=29	=29	=29	=29	=29	=29	=29	=29
.	.	(>8qqee#X/L) [>8qqcc#/ (8qqe#X/J	.	.	.	.	.
*	*	*^	*	*	*	*	*
[4GG#/ [4C# [4E#X	.	8g#\L) 8cc#] 8eeny)) 8gg#	4ryy	.	[4cc#\	strze-	Dein,	.
.	.	8a#X\ 8aa#X	.	.	.	.	.	.
4GG#/] 4C#] 4E#] 4G#	.	8b#X\ 8bb#X	4ee/ 4gg#	.	4cc#\]	-że,	.	.
.	.	8cc#\J 8ccc#	.	.	.	.	.	.
*	*	*v	*v	*	*	*	*	*
!!LO:LB:g=original	!	!	!	!	!	!
=30	=30	=30	=30	=30	=30	=30	=30
2EE:/ 2BB: 2Gn:	.	8dd\L 8ggn 8ddd	.	8b\	A-	Uns-	.
.	.	8cc#\ 8ccc#	<	8cc#\	-ni	-re	.
.	.	8dd\ 8ddd	.	8b\	świerk	Fich-	.
.	.	8dd#X\J 8gg#X 8ddd#X	[[	8a/	po-	-te	.
=31	=31	=31	=31	=31	=31	=31	=31
!	!	!LO:TUP:b:problem:klamra łukowa	!	!	!	!	!
(<2GGn\ 2D 2B	.	(12ff#\L 12bb 12dddn 12fff#	>	(4gn/	-chy-	darf	.
.	.	12ee\ 12eee	.	.	.	.	.
.	.	12dd\ 12ddd\J	.	.	.	.	.
*	*	*Xtuplet	*	*	*	*	*
.	.	12b\L 12bb	.	4f#/)	-ły	nicht	.
.	.	12gn\ 12ggn	.	.	.	.	.
.	.	12f#\J) 12ff#	]]	.	.	.	.
=32	=32	=32	=32	=32	=32	=32	=32
*	*	*^	*	*	*	*	*
4GG#X\) 4C# 4E#X 4B	.	8e#X\L 8ee#X	4b/ 4dd	.	8e#X/	Szep-	be-	.
.	.	8d\ 8dd	.	.	8e#/	-ce	-tend	.
4CCC#/ 4CC#	.	8.c#\ 8.cc#	[8e#/L 8a	.	8d#X/	tam	den-	.
.	.	.	8e#/J] 8g#	.	8e#/	pa-	-ken	.
.	.	16B\Jk 16b	.	.	.	.	.	.
*	*	*v	*v	*	*	*	*	*
=33	=33	=33	=33	=33	=33	=33	=33
*^	*	*	*	*	*	*	*
8FFF#/	2FFF#\	.	((4B:/ 4d: 4f#: 4b:	.	[4f#/	-cie-	Dein.	.
4FF#/	.	.	.	.	.	.	.	.
.	.	.	8.A/L)) 8.c# 8.f# 8.a	.	8f#/]	-rze,	.	.
8FF#/	.	.	.	.	8r	.	.	.
.	.	.	16g#/Jk	.	.	.	.	.
*v	*v	*	*	*	*	*	*	*
=34	=34	=34	=34	=34	=34	=34	=34
2BBB/ 2BB	.	8A/L 8d 8f#	.	8f#/	A-	Und	.
.	.	8f#/	.	8f#/	-ni	es	.
.	.	8.d/ 8.fn 8.a 8.dd	.	8.dd\	wierz-	darf	.
.	.	[16a/Jk	.	16a/	-by	mit	.
!!LO:LB:g=original	!	!	!	!	!	!
=35	=35	=35	=35	=35	=35	=35	=35
8AAA~/L 8AA	.	4.c#/ 4.a] 4.cc#	.	4.cc#\	na-	Rau-	.
8BBB~/ 8BB	.	.	.	.	.	.	.
8BBB#X~/ 8BB#X	.	.	.	.	.	.	.
8CC#~/J 8C#	.	8A/ 8e 8a	.	8a/	-sze	-nen	.
=36	=36	=36	=36	=36	=36	=36	=36
*	*	*^	*	*	*	*	*
*	*	*	*^	*	*	*	*	*
4DD/ 4AA 4D	.	[4f#/	8c#/L	[4F#\	.	8f#/	Ża-	un-	.
.	.	.	8e/J	.	.	8f#/	-łos-	-ser	.
[4GGG#/ [4DD [4GG#	.	(8f#/L]	4B/ 4d	8F#\L]	.	8g#/	-ne-	Wei-	.
.	.	8g#/J)	.	8G#\J	.	8b\	-mi	-den-	.
*	*	*v	*v	*v	*	*	*	*	*
=37	=37	=37	=37	=37	=37	=37	=37
8GGG#/] 8DD] 8GG#]	.	((4A/ 4d 4f# 4a	.	(4a/	szu-	-baum	.
4FFF#/ 4FF#	.	.	.	.	.	.	.
.	.	(>4c#/)) 4e 4g# 4cc#	.	4g#/)	-my,	.	.
8EEE/ 8EE	.	.	.	.	.	.	.
=38	=38	=38	=38	=38	=38	=38	=38
[2BBB/ [2BB	.	2A/) 2d 2f#	.	8f#/	Bu-	nachts	.
.	.	.	.	8f#/	-dzą	Dich	.
.	.	.	.	8e/	Cie-	nicht	.
.	.	.	.	8d/	-bie	er-	.
=39	=39	=39	=39	=39	=39	=39	=39
*	*	*^	*	*	*	*	*
8BBB/L] 8BB]	.	4r	4ryy	.	(4a/	no-	-we-	.
8AAA/J 8AA	.	.	.	.	.	.	.	.
(16DD/L 16D	.	8.c#/L	4E#X\ 4G#	.	8c#/)	-cą	-cken	.
16CC#/) 16C#	.	.	.	.	.	.	.	.
8BBB/J 8BB	.	.	.	.	16r	.	.	.
.	.	[16c#/Jk	.	.	16c#/	Z smier-	.	.
*	*	*v	*v	*	*	*	*	*
!!LO:PB:g=original	!	!	!	!	!	!
=40	=40	=40	=40	=40	=40	=40	=40
*^	*	*	*	*^	*	*	*
!	!	!	!	!	!	!	!	!	!LO:DY:a
8G#/L	(<(4AAA\ 4AA	.	4C#</ 4c#]	.	4cc#/	8cc#\	-tel-	aus dem	<
8F#/J	.	.	.	.	.	8cc#\	.	.	.
4ryy	8GGG#\L)) 8GG#	.	(>8D#X</L 8F#< 8B#X	.	8.cc#\	4ryy	nej	To-	.
.	8CC#\J 8C#	.	8E#X</J) 8Bn	.	.	.	.	.	.
.	.	.	.	.	16cc#\	.	za-	-des-	[
*v	*v	*	*	*	*	*	*	*	*
=41	=41	=41	=41	=41	=41	=41	=41	=41
*	*	*^	*	*	*	*	*	*
4FFF#:\ 4FF#:	.	(>16C#:</LL 16E<: 16A#X:	4ryy	.	(<4cc#\	4ff#/	-du-	-traum.	.
.	.	16c#/	.	.	.	.	.	.	.
.	.	16g#/	.	.	.	.	.	.	.
.	.	[>16cc#/JJ)	.	.	.	.	.	.	.
4DD/ [4FF# 4D	.	4f#/ 4ff#	8cc#\L]	.	4f#/)	4ryy	-my.	.	.
.	.	.	[8b\J	.	.	.	.	.	.
*	*	*v	*v	*	*	*	*	*	*
*	*	*	*	*v	*v	*	*	*
=42	=42	=42	=42	=42	=42	=42	=42
4.CC#/ 4.FF#] 4.C#	.	(>8e/L 8b] 8ee	.	2r	.	.	.
.	.	8f#/ 8ff#	.	.	.	.	.
.	.	8e/ 8ee	.	.	.	.	.
(8DD/ 8D	.	8d/J) 8dd	.	.	.	.	.
=43	=43	=43	=43	=43	=43	=43	=43
*	*	*^	*	*	*	*	*
8EE/L) 8E	.	4g#/ 4cc#	4c#\	.	2r	.	.	.
(8EE#X/ 8E#X	.	.	.	.	.	.	.	.
16GG#/L 16G#	.	8.c#/L 8.f#	4A\	.	.	.	.	.
16FF#/J 16F#	.	.	.	.	.	.	.	.
8EEn/J 8En	.	.	.	.	.	.	.	.
.	.	[16f#/Jk	.	.	.	.	.	.
=44	=44	=44	=44	=44	=44	=44	=44	=44
(4DD/) 4D	.	8b/L	4B\ 4f#]	.	2r	.	.	.
.	.	8b/J	.	.	.	.	.	.
(>4CC#/) 4C#	.	8g#/L	[8B\L 8e#X	.	.	.	.	.
.	.	8a/J	8B\J] 8en	.	.	.	.	.
=45	=45	=45	=45	=45	=45	=45	=45	=45
*^	*	*	*^	*	*	*	*	*
8D/L)	(2FF#\	.	2f#/	4.A#X\	8.e/L	.	4r	.	.	.
8C#/J	.	.	.	.	.	.	.	.	.	.
.	.	.	.	.	16d/Jk	.	.	.	.	.
(4F#/	.	.	.	.	4c#/	.	8.r	.	.	.
.	.	.	.	8An\	.	.	.	.	.	.
.	.	.	.	.	.	.	16f#/	Kur-	.	.
*v	*v	*	*	*	*	*	*	*	*	*
*	*	*v	*v	*v	*	*	*	*	*
!!LO:LB:g=original	!	!	!	!	!	!
=46	=46	=46	=46	=46	=46	=46	=46
*	*	*	*	*^	*	*	*
4EE/)) 4E	.	[2F#/ [2c# [2f#	.	8f#/L	8f#\	-ha-	Dei-	.
.	.	.	.	8g#/J	8g#\	-nu	-nen	.
4DD#X:/ 4BB: 4D#X:	.	.	.	8a/	4ryy	Two-	Gra-	.
.	.	.	.	8f#/	.	-je-	-bes-	.
*	*	*	*	*v	*v	*	*	*
=47	=47	=47	=47	=47	=47	=47	=47
((4DDn/ 4GG# 4Dn	.	2F#/] 2c#] 2f#]	.	[4cc#\	-go	-hü-	.
4CC#/)) 4AA 4C#	.	.	.	4cc#\]	.	-gel	.
=48	=48	=48	=48	=48	=48	=48	=48
((2DD/ 2D	.	((2F#/ 2B 2f#	.	8b\	Bra-	bau-	.
.	.	.	.	8b\	-cia	-ten	.
.	.	.	.	8a/	nie	nicht	.
.	.	.	.	8b\	sy-	die	.
=49	=49	=49	=49	=49	=49	=49	=49
2AAA/)) 2AA	.	2c#/)) 2f# 2cc#	.	(8cc#\L	-pa-	Brü-	.
.	.	.	.	8a\J)	.	.	.
.	.	.	.	4f#/	-li,	-der,	.
=50	=50	=50	=50	=50	=50	=50	=50
*	*	*^	*	*	*	*	*
2DDD/ 2DD	.	2F#/ 2f#	(>4e\	.	8f#/	Na-	Uns-	.
.	.	.	.	.	8g#/	-sza	-re	.
.	.	.	4d\	.	8a/	zło-	Mor-	.
.	.	.	.	.	8f#/	-ta	-gen-	.
!!LO:LB:g=original	!	!	!	!	!	!	!
=51	=51	=51	=51	=51	=51	=51	=51	=51
*	*	*	*^	*	*	*	*	*
[2BBB:/ [2FF#: [2D:	.	4.f#/)	[2F#\	[<4c#\	.	4cc#\	zo-	-rö-	.
.	.	.	.	(<4c#\]	.	4cc#\	-rza	-te	.
.	.	8e/	.	.	.	.	.	.	.
*	*	*	*v	*v	*	*	*	*	*
=52	=52	=52	=52	=52	=52	=52	=52	=52
4.BBB/] 4.FF#] 4.D]	.	8d/L	4F#\]) 4B	.	8f#/	To-	schei-	.
.	.	8d/	.	.	8f#/	-bie	-net	.
.	.	8e/	4G#\ 4B	.	8e/	się	Dir	.
8BBB/ 8BB	.	8d/J 8e#X	.	.	8d/	nie	nie	.
=53	=53	=53	=53	=53	=53	=53	=53	=53
8AAA/L 8AA	.	(4.f#/	8F#\L 8c#	.	(4.a/	pa-	wie-	.
8GGG#/ 8GG#	.	.	8G#\	.	.	.	.	.
8FFF#/ 8FF#	.	.	8A\	.	.	.	.	.
8EEE#X/J 8EE#X	.	8g#/)	8B\J 8d	.	8b\)	-li,	-der,	.
=54	=54	=54	=54	=54	=54	=54	=54	=54
(4.EEEn/ 4.EEn	.	8a/L	8A\L 8c# 8f#	.	8cc#\	To-	Uns-	.
.	.	8ff#/J	8f#\J	.	8cc#\	-bie	-re	.
.	.	8.a/L 8.ee	8g#\L	.	8.ee\	się	Ster-	.
(((8FFF#/) 8FF#	.	.	8f#\J	.	.	.	.	.
.	.	16dd/Jk	.	.	16dd\	nie	-ne	.
=55	=55	=55	=55	=55	=55	=55	=55	=55
*	*	*	*^	*	*^	*	*	*
8GGGn/)) 8GGn	.	8.a/L 8.cc#	8e#X\L	4ryy	.	4cc#\	4ryy	pa-	sind's	.
4AAA/ 4AA	.	.	8f#\J	.	.	.	.	.	.	.
.	.	[16a/Jk	.	.	.	.	.	.	.	.
.	.	8.a/L]	8f#\L	4A\	.	4a/	8a\	-lą,	nicht, die	.
[8CCn/) [8Cn	.	.	8e#\J	.	.	.	16r	.	.	.
.	.	16g#/Jk	.	.	.	.	16a\	.	.	.
!!LO:LB:g=original	!	!	!	!	!	!	!	!	!
=56	=56	=56	=56	=56	=56	=56	=56	=56	=56	=56
8.CC/L] 8.C]	.	8f#/L	8.e\L	4A\	>	8f#/	8f#\L	Na-	Dir	.
.	.	8g#/	.	.	.	8g#/	8g#\J	-sze	.	.
16BBB/K 16BB	.	.	16d#X\K	.	]	.	.	.	.	.
8FF#/ 8F#	.	8a:/	8A:\ 8dn:	4ryy	.	8a/	4ryy	gwia-	lauch-	.
8FFn:/J 8BB: 8Fn:	.	8b:/J	8G#:\J 8d#X:	.	.	8b\	.	-zdy	-tend	.
*	*	*	*	*	*	*v	*v	*	*	*
=57	=57	=57	=57	=57	=57	=57	=57	=57	=57
*^	*	*	*	*	*	*	*	*	*
[4E:/	4AAA:\ 4EE: 4AA:	.	[4cc#:/	4A:\	8e/L	.	4cc#\	drżą-	schei-	.
.	.	.	.	.	8e#X/J	.	.	.	.	.
16E/LL]	4DD\ 4AA	.	8.cc#/L]	(4c#\ [4f#	4ryy	.	4cc#\	-ce,	-nen,	.
[<16D/J	.	.	.	.	.	.	.	.	.	.
8D/J]	.	.	.	.	.	.	.	.	.	.
.	.	.	(16a/Jk	.	.	.	.	.	.	.
*	*	*	*	*v	*v	*	*	*	*	*
=58	=58	=58	=58	=58	=58	=58	=58	=58	=58
[4F#/	[4DD\ [4GG#	.	8b/L)	8d\) 8f#]	.	8b\	Gro-	und	.
.	.	.	8ff#/	4f#\	.	8cc#\	-bu	nicht	.
16F#/KL]	16DD\KL] 16GG#]	.	8dd/	.	.	8b\	Twe-	uns-	.
8E/	8EE\	.	.	.	.	.	.	.	.
.	.	.	8b/J	8d\ 8g#	.	(16f#/LL	-go	-re	.
16E#X/Jk	16EE#X\Jk	.	.	.	.	16g#/JJ)	.	.	.
*v	*v	*	*	*	*	*	*	*	*
=59	=59	=59	=59	=59	=59	=59	=59	=59
*	*	*	*	*	*^	*	*	*
4FF#/ 4BB#X 4F#	.	[4a/	(8e-X\L	.	4a/	4ryy	na-	Mon-	.
.	.	.	8d\	.	.	.	.	.	.
8GGn/L 8C# 8Fn	.	4a/_	8c#X\	.	8a/L	4a\	-sze	-de	.
8AA/J 8D 8F#X	.	.	8cn\J)	.	8a/J	.	nie	.	.
=60	=60	=60	=60	=60	=60	=60	=60	=60	=60
((2BB/ 2C# 2E#X	.	(4a/]	4.B\ 4.e#X	.	8b/L	8b\L	sre-	die	.
.	.	.	.	.	8cc#/J	8cc#\J	.	dein	.
.	.	4g#/)	.	.	8b\	8ryy	-brzą,	Grab	.
.	.	.	8B\ [>8c#	.	(16f#/LL	8ryy	mie-	be-	.
.	.	.	.	.	16g#/JJ)	.	.	.	.
*	*	*v	*v	*	*	*	*	*	*
*	*	*	*	*v	*v	*	*	*
=61	=61	=61	=61	=61	=61	=61	=61
*^	*	*	*	*	*	*	*
!	!	!	!LO:TX:b:t=rit.	!	!	!	!	!
(8AA\L)) 8F#	2C#/	.	4A/ 4c#] 4f#	.	4.a/	-sią-	-wei-	.
8BB\ 8G#	.	.	.	.	.	.	.	.
8AA\ 8F#	.	.	4r	<	.	.	.	.
8FF#\J) 8C#	.	.	.	.	8f#/	-ce...	-nen...	.
!!LO:PB:g=original	!	!	!	!	!	!	!
=62	=62	=62	=62	=62	=62	=62	=62	=62
8F#/L	8AA\L 8C#	.	[4ff#\ [4ccc# [4fff#	[ p	2r	.	.	.
8G#/	8BB\J	.	.	.	.	.	.	.
8F#/	4AA\	.	16ff#\KL] 16ccc#] 16fff#]	>	.	.	.	.
.	.	.	8f#\ 8cc# 8ff#	.	.	.	.	.
8C#/J	.	.	.	.	.	.	.	.
.	.	.	16f#\Jk	]	.	.	.	.
*v	*v	*	*	*	*	*	*	*
=63	=63	=63	=63	=63	=63	=63	=63
!	!	!LO:TX:b:i:t=a tempo	!	!LO:TX:a:i:t=a tempo	!	!	!
((2BBB/ 2BB	.	8A/L 8d 8e#X	.	8e#X/	Oj,	Ach,	.
.	.	[8e#/	.	8e#/	nie	die	.
.	.	8.d/ 8.e#] 8.a 8.dd	.	8.dd\	mia-	ar-	.
.	.	[16a/Jk	.	16a/	-ła	-me	.
=64	=64	=64	=64	=64	=64	=64	=64
*^	*	*	*	*	*	*	*
!LO:TUP:a:problem:klamra łukowa	!	!	!	!	!	!	!	!
12AAA/L)) 12AA	2EE\	.	4.c#/ 4.a] 4.cc#	.	4.cc#\	mat-	Mut-	.
12BBB/ 12BB	.	.	.	.	.	.	.	.
12BBB#X/J 12BB#X	.	.	.	.	.	.	.	.
4CC#/ 4C#	.	.	.	.	.	.	.	.
.	.	.	8A/ 8e 8a	.	8a/	-ka	-ter	.
=65	=65	=65	=65	=65	=65	=65	=65	=65
4DD/ 4AA 4D	4ryy	.	8A/L 8fn	.	8fn/	Szczę-	hatt'	.
.	.	.	8d/ 8a	.	8f/	-ścia	nicht	.
8.Fn/L	8DD\L 8AA	.	8f/ 8dd	.	8.dd\	w swo-	Glück	.
.	8AA\J	.	(>8a/J 8ffn	.	.	.	.	.
16D/Jk	.	.	.	.	16a/	-ich	noch	.
*v	*v	*	*	*	*	*	*	*
=66	=66	=66	=66	=66	=66	=66	=66
.	.	8qe#X/L) [>8qcc#/ [8qee#X/J	<	.	.	.	.
[4GG#/ [>4C# [4E#X	.	8g#\L 8cc#] 8ee#] 8gg#	.	[4cc#\	pro-	Stern	.
.	.	8a#X\ 8aa#X	.	.	.	.	.
4GG#/] 4C#] 4E#] 4G#	.	8b#X\ [8eeny [8gg# 8bb#X	.	4cc#\]	-gach,	.	.
.	.	8cc#\J 8ee] 8gg#] 8ccc#	[[	.	.	.	.
!!LO:LB:g=original	!	!	!	!	!	!
=67	=67	=67	=67	=67	=67	=67	=67
2EE:/ 2BB: 2Gn:	.	(8dd\L [<8ggn 8ddd	.	8b\	Oj,	Ach,	.
.	.	8cc#\ 8gg] 8ccc#	<	8cc#\	pu-	die	.
.	.	8dd\ 8ddd	.	8b\	-ści-	Söh-	.
.	.	8dd#X\J) 8gg 8bb 8ddd#X	[[	8a/	-ła	-ne	.
=68	=68	=68	=68	=68	=68	=68	=68
*	*	*tuplet	*	*	*	*	*
!	!	!LO:TUP:b:problem:klamra łukowa	!	!	!	!	!
(<2GGn:\ 2D: 2B:	.	(12ff#\L 12dddn 12fff#	>	(4gn/	sy-	zo-	.
.	.	12ee\ 12eee	.	.	.	.	.
.	.	12ddn\J 12ddd	.	.	.	.	.
!	!	!LO:TUP:b:problem:klamra łukowa	!	!	!	!	!
.	.	12b\L 12bb	.	4f#/)	-nów,	-gen,	.
.	.	12gn\ 12ggn	.	.	.	.	.
.	.	12f#\J) 12ff#	]]	.	.	.	.
=69	=69	=69	=69	=69	=69	=69	=69
*	*	*^	*	*	*	*	*
4GG#X\) 4C# 4E#X 4B	.	4b/ 4dd	8e#X\L 8ee#X	.	8e#X/	Po	blie-	.
.	.	.	8d\ 8dd	.	8e#/	roz-	-ben	.
4CCC#/ 4CC#^>	.	[<8e#/L 8a	8.c#\ 8.cc#	.	8d#X/	-staj-	lang	.
.	.	8e#/J] 8g#	.	.	8e#/	-nych	ihr	.
.	.	.	16B\Jk 16b	.	.	.	.	.
*	*	*v	*v	*	*	*	*	*
=70	=70	=70	=70	=70	=70	=70	=70
*	*	*	*	*^	*	*	*
8FFF#/	.	4B/ 4d 4f# 4b	.	[4f#/	4ryy	dro-	fern.	.
4FF#/	.	.	.	.	.	.	.	.
.	.	8.A/L 8.c# 8.f# 8.a	.	8f#/]	8ryy	-gach.	.	.
8FF#/	.	.	.	8f#/	8r	Oj,	.	.
.	.	16g#/Jk	.	.	.	.	.	.
!!LO:LB:g=original	!	!	!	!	!	!	!
=71	=71	=71	=71	=71	=71	=71	=71	=71
*	*	*^	*	*	*	*	*	*
(<2BBB/ (>2BB	.	8e/L [8f#	4A\	.	(4f#/	8f#\	ży-	Ach, die	.
.	.	8d/J 8f#]	.	.	.	8f#\	.	.	.
.	.	8.dd/L	4fn\ 4a	.	8.dd\)	4ryy	-ły	Söh-	.
.	.	[16a/Jk	.	.	16a/	.	tam	-ne	.
*	*	*v	*v	*	*	*	*	*	*
*	*	*	*	*v	*v	*	*	*
=72	=72	=72	=72	=72	=72	=72	=72
8AAA/L 8AA)	.	4.c#/ 4.a] 4.cc#	.	4.cc#\	sy-	leb-	.
8BBB/ 8BB	.	.	.	.	.	.	.
8BBB#/ 8BB#	.	.	.	.	.	.	.
8CC#/J 8C#	.	8A/ 8e 8a	.	8a/	-ny	-ten	.
=73	=73	=73	=73	=73	=73	=73	=73
*	*	*^	*	*	*	*	*
2DD/) 2D	.	2A/ 2f#	8e\	.	8f#/	W dłu-	un-	.
.	.	.	4d\	.	8f#/	-giej	-ter	.
.	.	.	.	.	8e/	po-	bit-	.
.	.	.	[8d\	.	8d/	-nie-	-tern	.
=74	=74	=74	=74	=74	=74	=74	=74	=74
*	*	*	*^	*	*	*	*	*
2AAA/ 2AA	.	4.A/ 4.a	4d\]	2e/	.	4.a/	-wier-	Schmer-	.
.	.	.	4c#\	.	.	.	.	.	.
.	.	8B/ 8b	.	.	.	8b\	-ce,	-zen,	.
*	*	*	*v	*v	*	*	*	*	*
=75	=75	=75	=75	=75	=75	=75	=75	=75
(4GGGn/ (4GGn	.	[2cc#/	[2c#\ 2e#X 2b	.	8cc#\	Oj,	Ach,	.
.	.	.	.	.	8cc#\	od-	sie	.
.	.	.	.	.	(8qee/	.	.	.
4GGG#X/) 4GG#X)	.	.	.	.	8dd\)	-da-	kehr-	.
.	.	.	.	.	8cc#\	-ły	-ten	.
!!LO:LB:g=original	!	!	!	!	!	!	!
=76	=76	=76	=76	=76	=76	=76	=76	=76
*	*	*	*^	*	*^	*	*	*
2AAA/ 2AA	.	2cc#/]	8g#\L	2c#\]	.	(4ff#/	4cc#\	mat-	heim-	.
.	.	.	[8f#^>\	.	.	.	.	.	.	.
.	.	.	8f#\]	.	.	4f#/)	4ryy	-ce	-wärts,	.
!	!	!LO:TX:b:t=rit.	!	!	!	!	!	!	!	!
.	.	.	8c#\J	.	.	.	.	.	.	.
*	*	*	*v	*v	*	*	*	*	*	*
*	*	*	*	*	*v	*v	*	*	*
=77	=77	=77	=77	=77	=77	=77	=77	=77
*ped	*	*	*	*	*	*	*	*
!	!	!	!	!LO:HP:b:t=e poco dim.	!	!	!	!
2BBB/ 2BB	.	8d/L	4A\	>	8e#X/	Swe	mit	.
.	.	(<8e#X/	.	.	8e#/	pęk-	ge-	.
.	.	8a/	4r	.	8.dd;\	-nię-	-broch'-	.
.	.	8dd/J)	.	.	.	.	.	.
.	.	.	.	.	16a/	-te	-nen	.
*	*	*v	*v	*	*	*	*	*
=78	=78	=78	=78	=78	=78	=78	=78
!	!	!	!	!LO:TX:a:i:t=morendo	!	!	!
(16FFF#/LL	.	4f#/ 4a 4cc#	.	[2cc#\	ser-	Her-	.
16CC#/	.	.	.	.	.	.	.
16AA/	.	.	.	.	.	.	.
16GG#/JJ	.	.	.	.	.	.	.
!LO:TX:b:i:t=m.g.	!	!LO:TX:i:b:t=morendo	!	!	!	!	!
16FF#\LL	.	4r	.	.	.	.	.
16AA\JJ	.	.	.	.	.	.	.
!LO:TX:b:i:t=m.d.	!	!	!	!	!	!	!
16D/LL	.	.	.	.	.	.	.
16C#/JJ)	.	.	.	.	.	.	.
=79	=79	=79	=79	=79	=79	=79	=79
!LO:TX:b:i:t=m.g.	!	!	!	!	!	!	!
N(16F#\LL	.	4ryy	.	4cc#\]	.	.	.
16A\	.	.	.	.	.	.	.
16d\	.	.	.	.	.	.	.
16c#\JJ	.	.	.	.	.	.	.
4ryy	.	N[16f#/LL	.	[4cc#\	-ce!	-zen!	.
.	.	N[16a/	.	.	.	.	.
.	.	16dd/	.	.	.	.	.
.	.	N[16cc#/JJN)	.	.	.	.	.
=80	=80	=80	=80	=80	=80	=80	=80
!	!	!LO:TX:a:i:t=m.g.	!	!	!	!	!
4ff#>/	.	2f#;<\N] 2aN] 2cc#N]	.	8cc#\]	.	.	.
.	.	.	.	8r	.	.	.
!	!LO:DY:a	!	!	!	!	!	!
4FFF#;/ 4FF#	pp	.	.	4r;	.	.	.
==	==	==	==	==	==	==	==
*-	*-	*-	*-	*-	*-	*-	*-
!!!system-decoration: s1{(s2,s3)}
!!!RDF**kern: > = above
!!!RDF**kern: < = below
!!!RDF**kern: N = linked
!!!ENC: Berenika Jozajtis
!!!END: 2022-07-22
!!!ENC: Jan Barakat
!!!END: 2022-08-14
!!!YEC: Copyright 2022 Narodowy Instytut Fryderyka Chopina (https://polishscores.org)
!!!YEM: License CC-BY-4.0 (https://creativecommons.org/licenses/by/4.0)
